X: 24462
T: Lucky In Love
R: reel
M: 4/4
K: Gmajor
f|~g3d BGGA|AGDB BA~a2|~g3d ~B3d|czdc BG~g2|
gbgd BGGA|AGDB BA~a2|~gzgd ~B3d|czdc BGGA|
AGDG EGDG|AGDB BA~A2|AGDG EGDz|cedc BGGA|
AGDG EGDG|AGDB BA~A2|~G2(3Bcd ezag|fzef gaba|
~g3d BGGA|AGDB BA~a2|~gzgd ~B3d|czdc|BG~g2|
bage DGGA|AGDB BA~a2|~gzgd ~B3d|czdc BGGA|
AGD2 EGDG|AGDB BA~A2|AGDG EGDz|cedc BGGA|
AGDG EGDz|AGDB BA~A2|~G2(3Bcd ezag|fzef ~g3|

